src/assets/duotone/Story.svg

<?xml version="1.0" encoding="UTF-8"?>
<svg width="24" height="24" viewBox="0 0 24 24" xmlns="http://www.w3.org/2000/svg">
 <path d="m16.42 7.9501c2.44 2.44 2.44 6.4 0 8.84s-6.4 2.44-8.84 0-2.44-6.4 0-8.84c2.44-2.44 6.4-2.44 8.84 0z"/>
 <path d="m8.25 22.39c-0.09 0-0.18999-0.02-0.27999-0.05-2.25-0.9-4.07-2.49-5.29-4.59-1.18-2.05-1.65-4.37-1.34-6.73 0.05-0.41 0.44-0.7 0.84-0.65 0.41 0.05 0.69999 0.43 0.64999 0.84-0.26 2.02 0.14003 4.02 1.15 5.78 1.04 1.8 2.61 3.17 4.54 3.94 0.38 0.16 0.57002 0.5899 0.42002 0.9799-0.11 0.3-0.40001 0.4801-0.69001 0.4801z" opacity=".4"/>
 <path d="m5.8501 5.2304c-0.22 0-0.44-0.09998-0.59-0.28998-0.26-0.33-0.19999-0.79999 0.13001-1.05 1.91-1.49 4.19-2.28 6.61-2.28 2.36 0 4.61 0.76001 6.5 2.2 0.33 0.25 0.39 0.71999 0.14 1.05s-0.72 0.39002-1.05 0.14002c-1.62-1.24-3.55-1.89-5.59-1.89-2.08 0-4.05 0.68002-5.69 1.96-0.14 0.11-0.29999 0.15998-0.45999 0.15998z" opacity=".4"/>
 <path d="m15.75 22.39c-0.3 0-0.58-0.18-0.7-0.47-0.15-0.38 0.03-0.82 0.42-0.98 1.93-0.78 3.5-2.14 4.54-3.94 1.02-1.76 1.42-3.76 1.15-5.78-0.05-0.41 0.24-0.79 0.65-0.84 0.4-0.05 0.79 0.2401 0.84 0.6501 0.3 2.35-0.16 4.6799-1.34 6.7299-1.21 2.1-3.04 3.68-5.29 4.59-0.08 0.02-0.17 0.04-0.27 0.04z" opacity=".4"/>
</svg>

<svg width="24" height="24" viewBox="0 0 24 24"  xmlns="http://www.w3.org/2000/svg">
<path d="M16.42 7.95012C18.86 10.3901 18.86 14.3501 16.42 16.7901C13.98 19.2301 10.02 19.2301 7.58 16.7901C5.14 14.3501 5.14 10.3901 7.58 7.95012C10.02 5.51012 13.98 5.51012 16.42 7.95012Z" />
<path opacity="0.4" d="M8.25003 22.3899C8.16003 22.3899 8.06004 22.3699 7.97004 22.3399C5.72004 21.4399 3.90003 19.8499 2.68003 17.7499C1.50003 15.6999 1.03003 13.3799 1.34003 11.0199C1.39003 10.6099 1.78003 10.3199 2.18003 10.3699C2.59003 10.4199 2.88002 10.7999 2.83002 11.2099C2.57002 13.2299 2.97005 15.2299 3.98005 16.9899C5.02005 18.7899 6.59002 20.1599 8.52002 20.9299C8.90002 21.0899 9.09004 21.5198 8.94004 21.9098C8.83004 22.2098 8.54003 22.3899 8.25003 22.3899Z" />
<path opacity="0.4" d="M5.8501 5.23035C5.6301 5.23035 5.4101 5.13037 5.2601 4.94037C5.0001 4.61037 5.06011 4.14038 5.39011 3.89038C7.30011 2.40038 9.58009 1.61035 12.0001 1.61035C14.3601 1.61035 16.6101 2.37036 18.5001 3.81036C18.8301 4.06036 18.8901 4.53035 18.6401 4.86035C18.3901 5.19035 17.9201 5.25037 17.5901 5.00037C15.9701 3.76037 14.0401 3.11035 12.0001 3.11035C9.92009 3.11035 7.95009 3.79037 6.31009 5.07037C6.17009 5.18037 6.0101 5.23035 5.8501 5.23035Z" />
<path opacity="0.4" d="M15.7502 22.3896C15.4502 22.3896 15.1702 22.2096 15.0502 21.9196C14.9002 21.5396 15.0802 21.0996 15.4702 20.9396C17.4002 20.1596 18.9702 18.7996 20.0102 16.9996C21.0302 15.2396 21.4302 13.2396 21.1602 11.2196C21.1102 10.8096 21.4002 10.4296 21.8102 10.3796C22.2102 10.3296 22.6002 10.6197 22.6502 11.0297C22.9502 13.3797 22.4902 15.7096 21.3102 17.7596C20.1002 19.8596 18.2702 21.4396 16.0202 22.3496C15.9402 22.3696 15.8502 22.3896 15.7502 22.3896Z" />
</svg>
